public/svg/eaves.svg

<svg width="75" height="136" viewBox="0 0 75 136" fill="none" xmlns="http://www.w3.org/2000/svg">
<path d="M11.7989 18.5847L11.7826 18.5845L11.7664 18.5854C10.7633 18.6418 9.76247 18.4402 8.85936 18C7.95624 17.5598 7.18094 16.8956 6.60737 16.0707C6.03381 15.2458 5.6811 14.2878 5.58287 13.2879C5.48469 12.2885 5.64401 11.2806 6.04565 10.3603C9.10353 3.47376 15.522 1.06078 22.7462 0.822586C29.9774 0.584162 37.8893 2.53708 43.6929 4.25624C44.0408 4.35994 44.4004 4.46656 44.7706 4.57631C49.9386 6.10837 57.1659 8.25097 63.1437 11.5745C69.5583 15.1409 74.3417 19.9553 73.8229 26.6701C73.5441 28.0607 72.8265 29.3255 71.7753 30.2782C70.717 31.2372 69.3772 31.8288 67.9555 31.9647L67.9442 31.9658L67.9331 31.9673C63.9803 32.526 59.4357 30.9288 54.8386 28.8277C53.3907 28.166 51.9578 27.4643 50.5444 26.7723C49.718 26.3676 48.8983 25.9663 48.0862 25.5781C45.8998 24.5329 43.784 23.591 41.8327 22.9928L41.8327 22.9927L41.8255 22.9906C32.0649 20.1573 21.962 18.6749 11.7989 18.5847Z" fill="#3A3C51" stroke="black"/>
<path d="M63.4161 54.9757L63.4166 54.9763C64.7445 56.7568 64.5922 59.3269 63.4328 61.3024C62.2819 63.2633 60.2363 64.4849 57.8899 63.7614C53.5425 62.4178 48.6508 62.8444 43.9738 64.1384C39.292 65.4337 34.7813 67.6099 31.1662 69.8208C26.8585 72.4147 23.5566 75.7656 20.4215 79.1669C19.9568 79.6712 19.496 80.1761 19.0363 80.6799C16.387 83.5831 13.7744 86.4461 10.6461 88.903C9.38702 89.7651 7.84193 90.1043 6.33714 89.8485C4.83711 89.5935 3.49466 88.7672 2.59128 87.5438C-0.809081 81.4479 0.163333 75.0063 3.88114 69.0516C7.61263 63.0749 14.0908 57.634 21.5663 53.669C29.0394 49.7051 37.4604 47.2424 45.0421 47.1771C52.6232 47.1118 59.2997 49.4392 63.4161 54.9757Z" fill="#3A3C51" stroke="black"/>
<path d="M21.7933 128.544L21.7933 128.544C21.3187 116.593 28.0297 105.754 36.0485 97.0142C39.1052 93.6856 43.5348 89.7805 48.3724 87.236C53.2163 84.6881 58.375 83.5505 62.9727 85.5729C63.796 85.9685 64.4316 86.6711 64.7429 87.53C65.0516 88.3814 65.0172 89.319 64.6478 90.145C63.5355 91.916 62.1187 93.3521 60.5954 94.7506C60.1968 95.1166 59.7891 95.4815 59.3777 95.8497C58.2226 96.8834 57.0389 97.9428 55.9498 99.122L55.9497 99.1219L55.9421 99.1305C53.0025 102.463 50.3788 106.062 48.1052 109.881C46.516 112.41 45.1226 114.99 43.7585 117.516C42.8663 119.167 41.9867 120.796 41.073 122.372C38.7418 126.394 36.1362 130.18 32.3883 133.496C30.508 135.157 27.9322 135.157 25.7469 134.083C23.5548 133.005 21.8833 130.905 21.7933 128.544Z" fill="#3A3C51" stroke="black"/>
</svg>

<svg xmlns="http://www.w3.org/2000/svg" width="75" height="136" fill="#3a3c51" stroke="#000" xmlns:v="https://vecta.io/nano"><path d="M11.8 18.585h-.032a5.88 5.88 0 0 1-5.721-8.225c3.058-6.887 9.476-9.3 16.7-9.538C29.977.584 37.9 2.536 43.694 4.256l1.078.32c5.168 1.532 12.395 3.675 18.373 6.998 6.415 3.566 11.198 8.38 10.68 15.096a6.63 6.63 0 0 1-5.867 5.295l-.01.001-.01.002c-3.953.56-8.497-1.04-13.094-3.14-1.448-.662-2.88-1.363-4.294-2.055l-2.458-1.194c-2.186-1.045-4.302-1.987-6.253-2.585h0l-.007-.002a111.25 111.25 0 0 0-30.027-4.406zm51.616 36.39h.001c1.328 1.78 1.176 4.35.016 6.326-1.15 1.96-3.197 3.182-5.543 2.46-4.347-1.344-9.24-.917-13.916.377s-9.194 3.46-12.808 5.68c-4.308 2.594-7.6 5.945-10.745 9.346l-1.385 1.513c-2.65 2.903-5.262 5.766-8.4 8.223a5.88 5.88 0 0 1-8.055-1.359C-.82 81.447.153 75.005 3.88 69.05c3.73-5.977 10.2-11.418 17.685-15.383s15.894-6.427 23.476-6.492 14.258 2.262 18.374 7.8zm-41.623 73.568h0c-.475-11.95 6.236-22.8 14.255-31.53 3.057-3.33 7.486-7.234 12.324-9.778 4.844-2.548 10.003-3.686 14.6-1.663a3.49 3.49 0 0 1 1.675 4.572c-1.112 1.77-2.53 3.207-4.052 4.606l-1.218 1.1c-1.155 1.034-2.34 2.093-3.428 3.272h0l-.008.01a71.71 71.71 0 0 0-7.837 10.75c-1.6 2.53-2.983 5.1-4.347 7.635l-2.685 4.856c-2.33 4.022-4.937 7.808-8.685 11.124-1.88 1.66-4.456 1.66-6.64.587-2.192-1.078-3.864-3.178-3.954-5.54z"/></svg>
